svg/document-download.svg

<svg width="24" height="24" viewBox="0 0 24 24" fill="none" xmlns="http://www.w3.org/2000/svg">
<path d="M4 4C4 2.89543 4.89543 2 6 2H14C14.2652 2 14.5196 2.10536 14.7071 2.29289L19.7071 7.29289C19.8946 7.48043 20 7.73478 20 8V20C20 21.1046 19.1046 22 18 22H6C4.89543 22 4 21.1046 4 20V4ZM17.5858 8L14 4.41421V8H17.5858ZM12 4L6 4V20H18V10H13C12.4477 10 12 9.55228 12 9V4ZM12 11.5C12.5523 11.5 13 11.9477 13 12.5V15.0858L13.2929 14.7929C13.6834 14.4024 14.3166 14.4024 14.7071 14.7929C15.0976 15.1834 15.0976 15.8166 14.7071 16.2071L12.7071 18.2071C12.3166 18.5976 11.6834 18.5976 11.2929 18.2071L9.29289 16.2071C8.90237 15.8166 8.90237 15.1834 9.29289 14.7929C9.68342 14.4024 10.3166 14.4024 10.7071 14.7929L11 15.0858L11 12.5C11 11.9477 11.4477 11.5 12 11.5Z" fill="#0D0D0D"/>
</svg>

<svg width="24" height="24" fill="none" xmlns="http://www.w3.org/2000/svg"><path d="M4 4a2 2 0 012-2h8a1 1 0 01.707.293l5 5A1 1 0 0120 8v12a2 2 0 01-2 2H6a2 2 0 01-2-2V4zm13.586 4L14 4.414V8h3.586zM12 4H6v16h12V10h-5a1 1 0 01-1-1V4zm0 7.5a1 1 0 011 1v2.586l.293-.293a1 1 0 011.414 1.414l-2 2a1 1 0 01-1.414 0l-2-2a1 1 0 111.414-1.414l.293.293V12.5a1 1 0 011-1z" fill="#0D0D0D"/></svg>
